X:1
T:,,КИ - КА - ПУ''
T:,,КИ - КА - ПУ''
T:Новый Салонный Американскiй танецъ.
T:Музыка М. МИШИНА.
T:Сочинекiе Арт. Имп. театровъ
T:Н. Н. ЯКОВЛЕВА.
T:H. 768 Д.
T:H. 768 Д.
C:Музыка М. МИШИНА.
Z:H. 768 Д.
%%score { ( 1 3 ) | ( 2 4 ) }
L:1/8
Q:1/4=90
M:2/4
K:G
V:1 treble nm="Piano" snm="Pno."
V:3 treble 
V:2 bass 
V:4 bass 
V:1
!f!{/^A} [GB]2{/A} [GB]2 | ([GB]/^A/B/e/ [GB]2) |{/^F} G2{/F} G2 | (G/F/G/B/ E2) | %4
{/^D} [G,E]{/D}[G,E]{/D} [G,E]2 |{/^D} [G,E]{/D}[G,E]{/D} [G,E]2 | %6
 [G,B,E]2!>(! [EGB]/[EGB]/[EGB]!>)! |!p! [G,B,E]2 [EGB]/[EGB]/[EGB] |: %8
S!pp!"^Начало танца." .E/.G/.F/.D/ .E/.G/.F/.D/ | .E.F/!>![Fc]/- [Fc]/A/.F/.D/ | %10
 .E/.G/.F/.D/ .E/.G/.F/.D/ | .E.G/!>![DB]/- [DB]/.F/.G/.B/ | [G^A][GB]/[Gc]/- [Gc]G | %13
 BA/E/- E/F/G/A/ | BA/E/- E/F/G/A/ | B/A/B/A/ B/A/F/D/ | E/G/F/D/ F/G/F/D/ | %17
 EF/!>![Fc]/- [Fc]/A/F/D/ | E/G/F/D/ E/G/F/D/ | EG/B/- B/F/G/B/ | B/^G/E/G/ cB | BA/E/- E_E | %22
 [CD]/[C^D]/[CE]/[C^E]/ [CF][CFc] |1!f! [B,DG] !>!F!>!E!>!D :|2 [B,DG] z [GBdg]"^Fine" z!fine! |: %25
!p!!f! .[fc'd'] !>![fc'd']2 .[fc'^d'] | !>![fc'e']2 !>![c=df]2 | [Bdg] !>![Bdg]2 [Bdb] | %28
 [Bdf]2 [Be]2 | .[Fcd] !>![Fcd]2 [Ee] | .[Ff][Aa] !>![dd']2 | .[GBd] !>![GBd]2 [Ee] | %32
 [Gg][Bb] [dd']2 | [fc'd'] [fc'd']2 [fc'^d'] | [fc'e']2!<(! [c=df]2 | [Bdg]!<)! !>![Bdg]2 [Bdb] | %36
 !>![G^Af]2 !>![GAe]2 | .[GBd] !>![GBd]2 [Ee] | [Ff][Aa] [dd']2 |1 [Gg] (^c/d/!<(! .e).d | %40
 (!>![ee'][dd'])!<)! (!>![ee'][dd']) :|2 [Gg] (^c/d/ .e).d | G z !>![GBdg] z!D.S.! |] %43
V:2
 !/![E,,B,,]4 | !/![E,,B,,]4 | !/![E,,B,,]4 | !/![E,,B,,]4 | !/![E,,B,,]3 !>!B,,, | %5
 !/![E,,B,,]3 !>!B,,, | !/-![E,,B,,]2 [B,,,B,,]2 | !/-![E,,B,,]2 [B,,,B,,]2 |: %8
 A,,[D,F,C] D,,[D,F,C] | A,,[D,F,C] D,,[D,F,C] | G,,[D,G,B,] D,,[D,G,B,] | %11
 G,,[D,G,B,] D,,[D,G,B,] | B,,[E,^G,D] E,,[E,G,D] | A,,[=G,A,^C] A,,[G,A,C] | %14
 A,,[G,A,^C] A,,[G,A,C] | D,,[D,F,=C] D,,[D,F,C] | A,,[F,A,C] D,,[D,F,C] | %17
 A,,[D,F,A,C] D,,[D,F,A,C] | G,,[D,G,B,] D,,[D,G,B,] | G,,[D,G,B,] D,,[D,G,B,] | %20
 ^G,,[E,^G,D] E,,[G,B,D] | A,,[E,A,C] [E,A,C][^C,G,_B,] | D,/F,/G,/^G,/ [D,A,] [D,,D,] |1 %23
 [G,,G,] !>![F,,F,]!>![E,,E,]!>![D,,D,] :|2 [G,,G,] z [G,,,G,,] z |: A,,[D,F,C] D,,[D,F,C] | %26
 A,,[D,F,C] D,,[D,F,C] | G,,[D,G,B,] D,,[D,G,B,] | G,,[D,G,B,] B,,[D,G,B,] | %29
 A,,[D,F,C] D,,[D,F,C] | A,,[D,F,C] D,,[D,F,C] | G,,[D,G,B,] D,,[D,G,B,] | %32
 G,,[D,G,B,] G,,[D,G,B,] | A,,[D,F,C] D,,[D,F,C] | A,,[D,F,C] D,,[D,F,C] | %35
 G,,[D,G,B,] G,,[D,G,B,] | ^C,,[^C,G,^A,] C,,[C,G,A,] | D,,[D,G,B,] D,,[D,G,B,] | %38
 A,,[D,F,C] D,,[D,F,C] |1 [G,B,] (^C/D/ .E).D | (!>![E,E][D,D]) (!>![E,E][D,D]) :|2 %41
 [G,B,] (^C/D/ .E).D |"^D. S. al Fine." G, z"_СМ. НА ОБАРОТѢ." !>![G,,G,] z |] %43
V:3
 x4 | x4 | x4 | E4 | x4 | x4 | x4 | x4 |: x4 | x4 | x4 | x4 | x4 | x4 | x4 | x4 | x4 | x4 | x4 | %19
 x4 | x2 [E^G]2 | x4 | x4 |1 x4 :|2 x4 |: x4 | x4 | x4 | x4 | x4 | x4 | x4 | x4 | x4 | x4 | x4 | %36
 x4 | x4 | x4 |1 x4 | x4 :|2 x4 | x4 |] %43
V:4
 x4 | x4 | x4 | x4 | x4 | x4 | x4 | x4 |: x4 | x4 | x4 | x4 | x4 | x4 | x4 | x4 | x4 | x4 | x4 | %19
 x4 | x4 | x4 | D,2- x2 |1 x4 :|2 x4 |: x4 | x4 | x4 | x4 | x4 | x4 | x4 | x4 | x4 | x4 | x4 | x4 | %37
 x4 | x4 |1 x4 | x4 :|2 x4 | x4 |] %43

